packages/landing-ui/public/paper-airplane-trail.svg

<svg width="292" height="208" viewBox="0 0 292 208" fill="none" xmlns="http://www.w3.org/2000/svg">
<path d="M77.5782 25.3164L70.7805 0.777805L1.10869 42.7543L77.5782 25.3164Z" fill="white"/>
<path d="M1.10864 42.7539L77.1865 32.4272L77.3849 32.4042L82.5739 35.2043L77.5781 25.316L1.10864 42.7539Z" fill="#DEEAF8"/>
<path d="M67.8098 33.7042L77.3849 32.4042L72.1152 59.5272L1.10864 42.7539L67.8098 33.7042Z" fill="white"/>
<path d="M92.9999 34C126.747 35.5601 195.929 50.6618 202.679 98.5878C211.116 158.495 238.535 195.469 290 206" stroke="#DEEAF8" stroke-width="3" stroke-linecap="round" stroke-dasharray="8 8"/>
</svg>

<svg width="292" height="208" fill="none" xmlns="http://www.w3.org/2000/svg"><path d="M77.578 25.316L70.781.778 1.109 42.754l76.47-17.438z" fill="#fff"/><path d="M1.109 42.754l76.078-10.327.198-.023 5.189 2.8-4.996-9.888-76.47 17.438z" fill="#DEEAF8"/><path d="M67.81 33.704l9.575-1.3-5.27 27.123L1.11 42.754l66.7-9.05z" fill="#fff"/><path d="M93 34c33.747 1.56 102.929 16.662 109.679 64.588C211.116 158.495 238.535 195.469 290 206" stroke="#DEEAF8" stroke-width="3" stroke-linecap="round" stroke-dasharray="8 8"/></svg>
